X:77
T: IN LAUTERBACH
N: F0183
O: Europa, Mitteleuropa, Deutschland
R: Scherz - Lied
M: 6/8
L: 1/16
K: A
E2 | E3AA2A2G2A2 | E3BB2B4
e2 | c3cc2B2A2B2 | A6z4
E2 | E3AA2A2G2A2 | E3BB2B4
e2 | c3cc2B2A2B2 | A6z4
E2 | e3ee2e2d2c2 | E3dd2d4
E2 | c3cc2c2B2A2 | B6z4
E2 | F3EE2E2c2B2 | A6z4
E2 | e3ee2e2d2c2 | E3dd2d4
E2 | c3cc2c2B2A2 | B6z4
E2 | F3EE2E2c2B2 | A6z4

